X:120
T:Sergeant Cahill's Favourite
R:slide
Z:id:hn-slide-120
M:6/8
L:1/8
K:G
D2E G2A | B2d dBG | B2B ABA | G2A BGE |
D2E G2A | B2d dBG | B2B ABA |1 G3 G2E :|2 G3 GBd ||
|: g2d e2d | g2d e2d | B2B ABA | G2A BGE |
D2E G2A | B2d dBG | B2B ABA |1 G3 GBd :|2 G3 G2E ||

